packages/kaspersky-hexa-ui-icons/src/iconsSVGs/48/Account.svg

<svg xmlns="http://www.w3.org/2000/svg" width="48" height="48" fill="none" viewBox="0 0 48 48"><path fill="currentColor" fill-rule="evenodd" d="m40.3049 32.93-4.41-1.22a9.66 9.66 0 0 1-5.48-5.2c3.8999-3.68 5.59-10.36 5.59-14.51 0-6.6274-5.3726-12-12-12-6.6275 0-12 5.3726-12 12 0 4.18 1.73 10.91 5.68 14.57-1.23 2.47-3.4501 4.56-5.55 5.14l-4.43 1.22c-4.7 1.4757-7.8457 5.8961-7.7 10.82v4.4h48v-4.4c.1456-4.9239-3.0002-9.3443-7.7-10.82M14.0049 12c0-5.5228 4.4771-10 10-10s10 4.4772 10 10c0 5.15-3 15.15-10 15.15s-10-10-10-15.15m32 34.15h-44v-2.4c-.1487-4.0296 2.401-7.6662 6.24-8.9l4.4-1.21a11.77 11.77 0 0 0 6.6299-5.83c2.9256 1.8046 6.6236 1.7852 9.53-.05a11.47 11.47 0 0 0 6.5601 5.88l4.4 1.21c3.8388 1.2338 6.3886 4.8704 6.24 8.9z" clip-rule="evenodd"/></svg>

<svg width="48" height="48" viewBox="0 0 48 48" fill="none" xmlns="http://www.w3.org/2000/svg">
<path fill-rule="evenodd" clip-rule="evenodd" d="M40.3049 32.93L35.8949 31.71C33.438 30.7924 31.4599 28.9153 30.4149 26.51C34.3148 22.83 36.0049 16.15 36.0049 12C36.0049 5.37258 30.6323 0 24.0049 0C17.3774 0 12.0049 5.37258 12.0049 12C12.0049 16.18 13.7349 22.91 17.6849 26.57C16.4549 29.04 14.2348 31.13 12.1349 31.71L7.70485 32.93C3.00499 34.4057 -0.140764 38.8261 0.0048506 43.75V48.15H48.0049V43.75C48.1505 38.8261 45.0047 34.4057 40.3049 32.93ZM14.0049 12C14.0049 6.47715 18.482 2 24.0049 2C29.5277 2 34.0049 6.47715 34.0049 12C34.0049 17.15 31.0049 27.15 24.0049 27.15C17.0049 27.15 14.0049 17.15 14.0049 12ZM46.0049 46.15H2.00485V43.75C1.85625 39.7204 4.40596 36.0838 8.24485 34.85L12.6449 33.64C15.5276 32.6305 17.905 30.54 19.2748 27.81C22.2004 29.6146 25.8984 29.5952 28.8048 27.76C30.1216 30.5151 32.4827 32.6314 35.3649 33.64L39.7649 34.85C43.6037 36.0838 46.1535 39.7204 46.0049 43.75V46.15Z"  fill="currentColor"/>
</svg>
